src/assets/icons/drawer/week.svg

<svg width="24" height="22" xmlns="http://www.w3.org/2000/svg"><path d="M20 3a2 2 0 012 2v12a2 2 0 01-2 2H4a2 2 0 01-2-2V5a2 2 0 012-2h16zM6 5H4v12h2V5zm5 0H8v12h3V5zm5 0h-3v12h3V5zm4 0h-2v12h2V5z" fill="#9EA3BA" fill-rule="evenodd"/></svg>

<?xml version="1.0" encoding="UTF-8"?>
<svg width="24px" height="22px" viewBox="0 0 24 22" version="1.1" xmlns="http://www.w3.org/2000/svg" xmlns:xlink="http://www.w3.org/1999/xlink">
    <!-- Generator: Sketch 57.1 (83088) - https://sketch.com -->
    <title>icons/side menu/week</title>
    <desc>Created with Sketch.</desc>
    <g id="Symbols" stroke="none" stroke-width="1" fill="none" fill-rule="evenodd">
        <g id="icons/side-menu/week" fill="#9EA3BA">
            <path d="M20,3 C21.1045695,3 22,3.8954305 22,5 L22,17 C22,18.1045695 21.1045695,19 20,19 L4,19 C2.8954305,19 2,18.1045695 2,17 L2,5 C2,3.8954305 2.8954305,3 4,3 L20,3 Z M6,5 L4,5 L4,17 L6,17 L6,5 Z M11,5 L8,5 L8,17 L11,17 L11,5 Z M16,5 L13,5 L13,17 L16,17 L16,5 Z M20,5 L18,5 L18,17 L20,17 L20,5 Z" id="Combined-Shape"></path>
        </g>
    </g>
</svg>
